X:1
T:Do You Know Him?
T:Do You Know Him?
T:James David Vaughan
T:Charles Wesley Vaughan, 1912
T:Public Domain Courtesy of the Cyber Hymnal™
T:Public Domain Courtesy of the Cyber Hymnal™
C:James David Vaughan
Z:Public Domain
Z:Courtesy of the Cyber Hymnal™
%%score ( 1 2 ) ( 3 4 )
L:1/8
Q:1/4=93
M:4/4
K:F
V:1 treble 
V:2 treble 
V:3 bass 
V:4 bass 
V:1
 [CF]>[CG] | [FA]>[FA] [FA]>[Fc] [FA]>[CF] D>[DF] | [DG][CF]- [CF]4 [FA]>[FB] | %3
w: 1.~Since your|child- hood you have heard the won- drous|sto- ry * Of the|
w: 2.~Just to|know my pre- cious Sav- ior is to|love Him, * I have|
w: 3.~Sin- ner,|will you learn to know my pre- cious|Sav- ior? * In His|
 [Fc]>[Fc] [Fc]>[Fd] [FA]>F [FG]>[FA] | [EG]6 [CF]>[CG] | [FA]>[FA] [FA]>[Fc] [FA]>[CF] D>[DF] | %6
w: Christ who gave His life on Cal- v’ry’s|tree; How for|you He left His Fa- ther’s home in|
w: al- ways found Him lov- ing, con- stant,|true; There’s no|o- ther friend so great but He’s a-|
w: love is ref- uge safe from all a-|larms; Come to|Him, and you will share His bless- èd|
 [DG][CF]- [CF]4 [FA]>[FB] | [Fc]>[Fc] [Fc]>[Fd] [FA]>[CF] [CG]>[CG] | [CF]6 ||"^Refrain" c>c | %10
w: glo- ry, * Bore the|cross that you from sin might be made|free.||
w: bove him, * What my|Sav- ior is to me He’ll be to|you.|Do you|
w: fa- vor * In the|shel- ter of His ev- er- last- ing|arms.||
 d(c- c4) A>F | G(F- F4) [FA]>[FB] | [Fc]>[Fc] [Fc]>[Fd] [FA]>F [FG]>[FA] | [EG]6 c>c | %14
w: ||||
w: know Him? * know my|Sav- ior? * Do you|know His won- drous love and might- y|power? If you|
w: ||||
 d(c- c4) A>F | G(F- F4) [FA]>[FB] | [Fc]>[Fc] [Fc]>[Fd] [FA]>[CF] [CG]>[CG] | [CF]6 |] %18
w: ||||
w: knew Him * as I|know Him, * You would|make my Sav- ior yours this ve- ry|hour.|
w: ||||
V:2
 x2 | x6 D3/2 x/ | x8 | x11/2 F/ x2 | x8 | x6 D3/2 x/ | x8 | x8 | x6 || x2 | x2 (E>FGF) x2 | %11
 x2 (D>DDC) x2 | x11/2 F/ x2 | x8 | x2 (E>FGF) x2 | x2 (D>DDC) x2 | x8 | x6 |] %18
V:3
 [F,A,]>[F,B,] | [F,C]>[F,C] [F,C]>[F,A,] [F,C]>[F,A,] [B,,B,]>[B,,B,] | %2
w: ||
 [F,B,][F,A,]- [F,A,]4 [F,C]>[F,G,] | [F,A,]>[F,A,] [F,A,]>[F,B,] [F,C]>[A,C] [G,=B,]>[G,B,] | %4
w: ||
 [C,C]6 [F,A,]>[F,B,] | [F,C]>[F,C] [F,C]>[F,A,] [F,C]>[F,A,] [B,,B,]>[B,,B,] | %6
w: ||
 [F,B,][F,A,]- [F,A,]4 [F,C]>[F,G,] | [F,A,]>[F,A,] [F,A,]>[D,A,] [C,C]>[C,A,] [C,B,]>[C,B,] | %8
w: ||
 [F,A,]6 || z2 | z2 [C,G,]>[C,A,] [F,B,][F,A,] z2 | z2 [B,,B,]>[B,,B,] [F,B,][F,A,] F,>[F,G,] | %12
w: ||Do you know Him?|know my Savior? * If *|
 [F,A,]>[F,A,] [F,A,]>[F,B,] [F,C]>[A,C] [G,=B,]>[G,B,] | [C,C]6 z2 | %14
w: ||
 z2 [C,G,]>[C,A,] [F,B,][F,A,] z2 | z2 [B,,B,]>[B,,B,] [F,B,][F,A,] [F,C]>[F,G,] | %16
w: you knew Him as|I know Him, * * *|
 [F,A,]>[F,A,] [F,A,]>[D,A,] [C,C]>[C,A,] [C,B,]>[C,B,] | [F,A,]6 |] %18
w: ||
V:4
 x2 | x8 | x8 | x8 | x8 | x8 | x8 | x8 | x6 || x2 | x8 | x6 F,3/2 x/ | x8 | x8 | x8 | x8 | x8 | %17
 x6 |] %18

